X: 12
T: Flogging, The
Z: Fernando Durbán Galnares
S: https://thesession.org/tunes/195#setting46260
R: reel
M: 4/4
L: 1/8
K: Gmaj
|:A|"G"BGGA BGdG|"G"BGGA Bdgd|"G"BGGA BdcB|"Am7"AGFG "D"ABc:|
|:d|"G"g2gd BGBd|"G"g2gd "D"fgaf|"G"g2gd BGBd|"Am7"AGFG "D"ABc:|
A|"G"Bdgd Bdgd|"G"Bdgd BGG2|"F"Ac=fc Ac=fc|"F"Ac=fc A=FF2|
"G"Bdgd Bdgd|"G"Bdef g2ga|"G"bgaf "Em"gedB|"Em7"AGFG "D"ABc||

